X: 1226
T: Carrigaline  #2
M: C|
L: 1/8
R: reel
B: O'Neill's 1850 #1226
O: F.O'Neill
Z: Trish O'Neil
K: C
(3G,A,B,) |: CB,CD (EG)G2 | Adde dcAB | {d}cBcA GEcA |1 GFED ECA,B, :|2 GEDE C2Hz2 |]
|: Tc2ec gcec | agfd BcdB |1 Tc2ec gcec | agfd BGAB :|2 cBcA GEcA | GEDE "_d.C."C2 |]
